X: 5
T: Bill Sullivan's
R: polka
M: 2/4
L: 1/8
K: Amaj
A/B/ [|:ce eA | d>e fe | ce eA/B/ | cB BA/B/ |
ce eA | d>e fe | ce B/c/d/B/ | cA AA/B/ :|
B/A/ |a2 a/b/a/f/ | ec a>e | ce a>f | ec BA |
a2 a>f | ec a>e | ce B/c/d/B/ | cA AB/A/ |
a2 a>f | ec a>e | ce c/e/a/f/ | ec BA |
a2 a>f | ec a>e | ce B/c/d/B/ | cA Ae/d/ |]


Tune 481	Setting 29241

